X:1
T:If the Heart of a Man
M:6/4
L:1/4
K:D
 F/2G/2| A3/2 B/2 A A3/2 B/2 A| d2 A A2F/2-G/2| A3/2 B/2 A A3/2 B/2 A|\
 e2 A/2A/2 A2 F/2G/2| A3/2 B/2 A A3/2 B/2 A| d- d A e2 A| f3/2 e/2 d A3/2 d/2 c|\
 d- d D D2 z| f3/2 e/2 d f3/2 e/2 d| e2 A A3| f3/2 e/2 d f3/2 e/2 d|\
 g2 e e2- e| f3/2 e/2 d f3/2 e/2 d| g3/2 f/2 e g3/2 f/2 e| f3/2 e/2 d A3/2 d/2 c|\
 d- d D D2||
